X: 1
T:The Irish Rover's -- Reel
M:C|
L:1/8
R:reel
B:Ryan's Mammoth Collection
N:235
Z:Contributed by Ray Davies,  ray:davies99.freeserve.co.uk
K:D
ug|\
((3fga) ec dAAB | dAAF GEEg | ((3fga) ec dAAB | Adeg fd dz |
((3fga) ec d2(cA) | dAAF GE Ez | FAGB AcBd | cdeg fd dz:|
|:dfAd fdAd | ceAc eAce | {a}gfga gbag | fgec d2(FA) |
  dfAd fdAd | ceAc e2(fg) | fedc d2(cB) | ABde fd dz:|
